X:1
T:The Elfin Knight
M:4/4
L:1/8
K:C
 AB| c2 BB A2G-E| G2A-G E2 z2| c- A3 c- A3| G3/2 E/2 G2 A2 A3/2 B/2|\
 c2 B2 A2 EE| G2 A2E-D C3/2 C/2| D3 D E3/2- D/2 C3/2 D/2| E2 D3/2 D/2 D4|\
 z6||
